flaticon/hand-gestures/like-1.svg

<svg xmlns="http://www.w3.org/2000/svg" width="32" height="32" viewBox="0 0 24 24">
    <path d="M 20.960938 14.152344 C 20.878906 13.371094 20.429688 12.757812 19.773438 12.386719 C 20.222656 11.976562 20.550781 11.363281 20.550781 10.664062 C 20.550781 10.132812 20.347656 9.597656 19.9375 9.1875 C 19.484375 8.695312 18.789062 8.410156 18.007812 8.410156 L 13.289062 8.410156 L 13.578125 6.847656 L 13.90625 5.332031 C 14.4375 3.402344 13.371094 1.023438 11.691406 0.242188 C 11.527344 0.160156 11.320312 0.078125 11.035156 0.0390625 C 10.253906 -0.125 9.84375 0.285156 9.71875 0.449219 C 9.515625 0.570312 9.515625 0.652344 9.472656 1.597656 C 9.390625 2.828125 9.226562 5.453125 8.613281 7.546875 C 8.613281 7.585938 8.367188 8.246094 8.203125 9.105469 L 7.628906 9.105469 C 5.082031 9.105469 3.03125 11.15625 3.03125 13.703125 L 3.03125 18.417969 C 3.03125 20.472656 4.589844 22.152344 6.765625 22.398438 C 7.078125 22.433594 7.390625 22.585938 7.726562 22.804688 C 7.761719 22.835938 7.796875 22.863281 7.832031 22.890625 C 7.859375 22.90625 7.882812 22.917969 7.90625 22.929688 C 7.910156 22.929688 7.914062 22.929688 7.914062 22.933594 C 8.242188 23.179688 8.777344 23.382812 9.636719 23.589844 C 10.539062 23.792969 11.484375 24 12.46875 24 L 17.023438 24 C 18.253906 24 19.320312 23.015625 19.320312 21.867188 C 19.363281 21.210938 19.117188 20.636719 18.664062 20.183594 C 19.484375 19.855469 20.058594 19.160156 20.140625 18.296875 C 20.222656 17.679688 19.976562 17.023438 19.566406 16.574219 C 19.566406 16.53125 19.527344 16.492188 19.527344 16.492188 C 19.855469 16.328125 20.140625 16.164062 20.386719 15.875 C 20.796875 15.425781 21.003906 14.769531 20.960938 14.152344 Z M 19.8125 15.300781 C 19.527344 15.589844 19.15625 15.753906 18.746094 15.753906 L 15.667969 15.753906 C 15.421875 15.753906 15.257812 15.917969 15.257812 16.164062 C 15.257812 16.410156 15.421875 16.574219 15.667969 16.574219 L 17.925781 16.574219 C 18.335938 16.574219 18.707031 16.738281 18.992188 17.023438 C 19.28125 17.3125 19.402344 17.722656 19.363281 18.132812 C 19.28125 18.871094 18.625 19.445312 17.84375 19.445312 L 14.847656 19.445312 C 14.601562 19.445312 14.4375 19.609375 14.4375 19.855469 C 14.4375 20.101562 14.601562 20.265625 14.847656 20.265625 L 17.199219 20.265625 C 17.234375 20.285156 17.269531 20.300781 17.3125 20.308594 C 18.050781 20.429688 18.582031 21.046875 18.542969 21.785156 C 18.5 22.5625 17.84375 23.179688 17.023438 23.179688 L 12.46875 23.179688 C 11.566406 23.136719 10.664062 22.972656 9.800781 22.769531 C 8.898438 22.5625 8.53125 22.398438 8.367188 22.277344 C 8.363281 22.273438 8.359375 22.273438 8.355469 22.269531 C 8.335938 22.242188 8.3125 22.214844 8.285156 22.195312 C 7.875 21.90625 7.710938 21.292969 7.464844 20.308594 L 7.421875 20.226562 C 7.382812 20.019531 7.136719 19.898438 6.929688 19.9375 C 6.726562 19.980469 6.601562 20.226562 6.644531 20.429688 L 6.683594 20.554688 C 6.792969 20.960938 6.890625 21.324219 7.007812 21.648438 C 6.9375 21.636719 6.871094 21.625 6.808594 21.621094 C 5.082031 21.414062 3.8125 20.0625 3.8125 18.417969 L 3.8125 13.703125 C 3.8125 11.609375 5.492188 9.925781 7.585938 9.925781 C 7.585938 9.925781 8.53125 9.925781 8.53125 9.925781 C 8.734375 9.925781 8.898438 9.761719 8.941406 9.558594 C 9.0625 8.574219 9.351562 7.792969 9.351562 7.75 C 9.964844 5.535156 10.171875 2.871094 10.253906 1.597656 C 10.253906 1.351562 10.292969 1.0625 10.292969 0.941406 C 10.375 0.859375 10.5 0.734375 10.828125 0.816406 C 11.035156 0.859375 11.199219 0.941406 11.320312 0.980469 C 12.511719 1.515625 13.535156 3.402344 13.085938 5.085938 L 12.757812 6.644531 L 12.386719 8.738281 C 12.386719 8.859375 12.386719 8.984375 12.46875 9.023438 C 12.550781 9.148438 12.675781 9.1875 12.796875 9.1875 L 18.007812 9.1875 C 18.542969 9.1875 19.035156 9.394531 19.363281 9.722656 C 19.648438 10.007812 19.773438 10.335938 19.773438 10.625 C 19.773438 11.402344 19.117188 12.058594 18.335938 12.058594 L 14.4375 12.058594 C 14.191406 12.058594 14.027344 12.222656 14.027344 12.46875 C 14.027344 12.714844 14.191406 12.878906 14.4375 12.878906 L 18.664062 12.878906 C 19.445312 12.878906 20.101562 13.457031 20.183594 14.195312 C 20.222656 14.605469 20.101562 15.015625 19.8125 15.300781 Z M 19.8125 15.300781"/>
</svg>

<svg xmlns="http://www.w3.org/2000/svg" width="32" height="32" viewBox="0 0 24 24">
    <path d="M20.96 14.152c-.081-.78-.53-1.394-1.187-1.765a2.35 2.35 0 0 0 .778-1.723c0-.531-.203-1.066-.613-1.476-.454-.493-1.149-.778-1.93-.778h-4.719l.29-1.562.327-1.516c.531-1.93-.535-4.309-2.215-5.09a2.036 2.036 0 0 0-.656-.203c-.781-.164-1.191.246-1.316.41-.203.121-.203.203-.246 1.149-.082 1.23-.246 3.855-.86 5.949 0 .039-.246.7-.41 1.558H7.63a4.588 4.588 0 0 0-4.598 4.598v4.715c0 2.055 1.559 3.734 3.735 3.98.312.036.625.188.96.407l.106.086a1.43 1.43 0 0 0 .082.043c.328.246.863.449 1.723.656.902.203 1.847.41 2.832.41h4.554c1.23 0 2.297-.984 2.297-2.133.043-.656-.203-1.23-.656-1.683.82-.329 1.395-1.024 1.477-1.887.082-.617-.164-1.274-.575-1.723 0-.043-.039-.082-.039-.082.328-.164.614-.328.86-.617.41-.45.617-1.105.574-1.723zm-1.148 1.149a1.48 1.48 0 0 1-1.066.453h-3.078c-.246 0-.41.164-.41.41 0 .246.164.41.41.41h2.258c.41 0 .781.164 1.066.45.29.288.41.699.371 1.109-.082.738-.738 1.312-1.52 1.312h-2.995c-.246 0-.41.164-.41.41 0 .247.164.41.41.41h2.351c.035.02.07.036.113.044.739.12 1.27.738 1.231 1.476-.043.777-.7 1.395-1.52 1.395H12.47c-.903-.043-1.805-.207-2.668-.41-.903-.207-1.27-.372-1.434-.493-.004-.004-.008-.004-.012-.007a.318.318 0 0 0-.07-.075c-.41-.289-.574-.902-.82-1.886l-.043-.082c-.04-.207-.285-.329-.492-.29-.203.043-.328.29-.285.493l.039.125c.109.406.207.77.324 1.093-.07-.011-.137-.023-.2-.027-1.726-.207-2.995-1.558-2.995-3.203v-4.715a3.764 3.764 0 0 1 3.773-3.777h.945c.203 0 .367-.164.41-.367.121-.985.41-1.766.41-1.809.614-2.215.82-4.879.903-6.152 0-.246.039-.536.039-.657.082-.082.207-.207.535-.125.207.043.371.125.492.164 1.192.536 2.215 2.422 1.766 4.106l-.328 1.559-.371 2.093c0 .121 0 .246.082.285a.37.37 0 0 0 .328.165h5.21c.536 0 1.028.207 1.356.535.285.285.41.613.41.902 0 .777-.656 1.434-1.437 1.434h-3.898c-.247 0-.41.164-.41.41 0 .246.163.41.41.41h4.226c.781 0 1.438.578 1.52 1.316.039.41-.082.82-.372 1.106zm0 0"/>
</svg>
